images/FreeCellLabel.svg

<svg xmlns="http://www.w3.org/2000/svg" width="252" height="54" viewBox="0 0 252 54">
    <g fill-opacity=".403">
        <path d="M40.031 15.227q1.016 0 1.578 1.343l10.578-.14q1.172 0 1.344 1.422h.078l-.078.375v.968q0 1.813-2.094 1.813l-9.234.14-.828.079v4.125h10.5q1.875 0 1.875 1.421h.078q0 2.704-1.578 2.704l-10.047.218-.75.078v2.329l-.078 4.796.078.907q0 .828-1.266 1.047h-.156q-1.125 0-1.281-1.344l-.063-7.656q-1.578 0-1.578-1.5 0-.688 1.578-2.922l-.078-2.922v-.828q0-.438-1.047-.75-.531-.5-.531-1.047v-.156q0-.469.969-1.797 0-1.891 1.734-2.703zM72.781 15.117q4.36 0 7.641 3.297 1.125 1.406 1.125 3.219 0 4.297-6.516 6.078l-.75.078-5.625-.375v.078l12.75 6.672q.375.406.594 1.797-.25 1.719-1.5 1.719-.328 0-19.266-9.516H61v.078l.078 10.422q0 .828-1.281 1.047-1.156 0-1.563-.969l.063-2.25v-4.578l-.063-5.25q-1.5-.437-1.5-2.25l-.078-.672q0-1.25 1.578-1.5v-1.578q-.828-.453-1.125-1.578-.531-.781-.531-1.422 0-1 1.797-1.281 0-.438 1.203-.828l1.203.531q8.672-.969 12-.969M61 20.289v2.328q0 .235 7.281 1.125 3.75.375 5.766.375 3.547 0 4.437-2.328l.141-.609q-.937-2.172-4.266-2.172-4.265 0-13.359 1.281M87.547 14.898q.297 0 1.359.454h7.047l6.828.078q1 0 1.719 2.25l.078.515q-.39 1.36-2.031 1.36l-13.719.218.078 2.032v2.39h11.625q1.766 0 2.25 1.5l.141.907q0 1.64-1.938 1.64h-12v6.156h.063l13.875.079q.953 0 1.656 2.39 0 1.156-1.719 1.5l-13.578.235q-.484 1.421-1.578 1.421-1.219 0-1.656-2.031-1.266-1.922-1.266-2.25 0-1 1.5-1.422l-.078-.515v-5.86q-1.5-1.359-1.5-2.39 0-1.078 1.422-1.36v-4.578q-1.219-1.234-1.422-2.765 0-1.204 1.656-1.5.891-.454 1.188-.454M109.734 14.898q.297 0 1.36.454h7.047l6.828.078q1 0 1.719 2.25l.078.515q-.391 1.36-2.032 1.36l-13.718.218.078 2.032v2.39h11.625q1.765 0 2.25 1.5l.14.907q0 1.64-1.937 1.64h-12v6.156h.062l13.875.079q.953 0 1.657 2.39 0 1.156-1.719 1.5l-13.578.235q-.485 1.421-1.578 1.421-1.219 0-1.657-2.031-1.265-1.922-1.265-2.25 0-1 1.5-1.422l-.078-.515v-5.86q-1.5-1.359-1.5-2.39 0-1.078 1.421-1.36v-4.578q-1.218-1.234-1.421-2.765 0-1.204 1.656-1.5.891-.454 1.187-.454M143.109 15.898q2.844 0 7.875 1.875.516.5.516 1.36 0 1.719-1.578 2.094-3.86-.969-6.75-.969h-.063q-5.781 0-9.75 4.797-1.281 1.984-1.281 4.343 0 5.485 6.297 5.485h.453q6.016 0 11.625-3.828.75-.75 1.5-.75 1.719.234 1.719 1.578v.219q0 1.812-2.313 2.921-2.562 1.86-6.687 3.079-3.406.75-5.172.75-7.844 0-9.672-6-.75-2.86-.75-4.282 0-4.984 5.844-9.672 5.047-3 8.187-3M158.953 14.898q.297 0 1.359.454h7.047l6.829.078q1 0 1.718 2.25l.078.515q-.39 1.36-2.031 1.36l-13.719.218.078 2.032v2.39h11.626q1.765 0 2.25 1.5l.14.907q0 1.64-1.937 1.64h-12v6.156h.062l13.875.079q.953 0 1.656 2.39 0 1.156-1.718 1.5l-13.578.235q-.485 1.421-1.579 1.421-1.218 0-1.656-2.031-1.265-1.922-1.265-2.25 0-1 1.5-1.422l-.079-.515v-5.86q-1.5-1.359-1.5-2.39 0-1.078 1.422-1.36v-4.578q-1.219-1.234-1.422-2.765 0-1.204 1.657-1.5.89-.454 1.187-.454M180.328 13.977h.219q1.281.171 1.281 1.265v.375l-.078.906.078.907.297 17.015h10.125q3.516 0 3.516.61.375.047.453 2.25-.219 1.187-1.578 1.187h-8.922l-3.516-.062q-.594.968-1.359.968-.906 0-1.5-1.203-1.047-.687-1.047-2.172 0-.984 1.125-1.656l-.078-.297-.219-17.328-.234-1.5q0-.984 1.437-1.265M199.078 13.977h.219q1.281.171 1.281 1.265v.375l-.078.906.078.907.297 17.015H211q3.516 0 3.516.61.375.047.453 2.25-.219 1.187-1.578 1.187h-8.922l-3.516-.062q-.594.968-1.359.968-.906 0-1.5-1.203-1.047-.687-1.047-2.172 0-.984 1.125-1.656l-.078-.297-.219-17.328-.234-1.5q0-.984 1.437-1.265"/>
    </g>
</svg>

<?xml version="1.0" encoding="UTF-8"?>
<!DOCTYPE svg PUBLIC "-//W3C//DTD SVG 1.1//EN" "http://www.w3.org/Graphics/SVG/1.1/DTD/svg11.dtd">
<svg version="1.1" xmlns="http://www.w3.org/2000/svg" xmlns:xlink="http://www.w3.org/1999/xlink" x="0" y="0" width="252" height="54" viewBox="0, 0, 252, 54">
  <g id="Layer_1">
    <path d="M40.031,15.227 Q41.047,15.227 41.609,16.57 L52.187,16.43 Q53.359,16.43 53.531,17.852 L53.609,17.852 L53.531,18.227 L53.531,19.195 Q53.531,21.008 51.437,21.008 L42.203,21.148 L41.375,21.227 L41.375,25.352 L51.875,25.352 Q53.75,25.352 53.75,26.773 L53.828,26.773 Q53.828,29.477 52.25,29.477 L42.203,29.695 L41.453,29.773 L41.453,32.102 L41.375,36.898 L41.453,37.805 Q41.453,38.633 40.187,38.852 L40.031,38.852 Q38.906,38.852 38.75,37.508 L38.687,29.852 Q37.109,29.852 37.109,28.352 Q37.109,27.664 38.687,25.43 L38.609,22.508 L38.609,21.68 Q38.609,21.242 37.562,20.93 Q37.031,20.43 37.031,19.883 L37.031,19.727 Q37.031,19.258 38,17.93 Q38,16.039 39.734,15.227 z" fill="#000000" fill-opacity="0.403"/>
    <path d="M72.781,15.117 Q77.141,15.117 80.422,18.414 Q81.547,19.82 81.547,21.633 Q81.547,25.93 75.031,27.711 L74.281,27.789 L68.656,27.414 L68.656,27.492 L81.406,34.164 Q81.781,34.57 82,35.961 Q81.75,37.68 80.5,37.68 Q80.172,37.68 61.234,28.164 L61,28.164 L61,28.242 L61.078,38.664 Q61.078,39.492 59.797,39.711 Q58.641,39.711 58.234,38.742 L58.297,36.492 L58.297,31.914 L58.234,26.664 Q56.734,26.227 56.734,24.414 L56.656,23.742 Q56.656,22.492 58.234,22.242 L58.234,20.664 Q57.406,20.211 57.109,19.086 Q56.578,18.305 56.578,17.664 Q56.578,16.664 58.375,16.383 Q58.375,15.945 59.578,15.555 L60.781,16.086 Q69.453,15.117 72.781,15.117 z M61,20.289 L61,22.617 Q61,22.852 68.281,23.742 Q72.031,24.117 74.047,24.117 Q77.594,24.117 78.484,21.789 L78.625,21.18 Q77.688,19.008 74.359,19.008 Q70.094,19.008 61,20.289 z" fill="#000000" fill-opacity="0.403"/>
    <path d="M87.547,14.898 Q87.844,14.898 88.906,15.352 L95.953,15.352 L102.781,15.43 Q103.781,15.43 104.5,17.68 L104.578,18.195 Q104.188,19.555 102.547,19.555 L88.828,19.773 L88.906,21.805 L88.906,24.195 L100.531,24.195 Q102.297,24.195 102.781,25.695 L102.922,26.602 Q102.922,28.242 100.984,28.242 L88.984,28.242 L88.984,34.398 L89.047,34.398 L102.922,34.477 Q103.875,34.477 104.578,36.867 Q104.578,38.023 102.859,38.367 L89.281,38.602 Q88.797,40.023 87.703,40.023 Q86.484,40.023 86.047,37.992 Q84.781,36.07 84.781,35.742 Q84.781,34.742 86.281,34.32 L86.203,33.805 L86.203,27.945 Q84.703,26.586 84.703,25.555 Q84.703,24.477 86.125,24.195 L86.125,19.617 Q84.906,18.383 84.703,16.852 Q84.703,15.648 86.359,15.352 Q87.25,14.898 87.547,14.898 z" fill="#000000" fill-opacity="0.403"/>
    <path d="M109.734,14.898 Q110.031,14.898 111.094,15.352 L118.141,15.352 L124.969,15.43 Q125.969,15.43 126.688,17.68 L126.766,18.195 Q126.375,19.555 124.734,19.555 L111.016,19.773 L111.094,21.805 L111.094,24.195 L122.719,24.195 Q124.484,24.195 124.969,25.695 L125.109,26.602 Q125.109,28.242 123.172,28.242 L111.172,28.242 L111.172,34.398 L111.234,34.398 L125.109,34.477 Q126.062,34.477 126.766,36.867 Q126.766,38.023 125.047,38.367 L111.469,38.602 Q110.984,40.023 109.891,40.023 Q108.672,40.023 108.234,37.992 Q106.969,36.07 106.969,35.742 Q106.969,34.742 108.469,34.32 L108.391,33.805 L108.391,27.945 Q106.891,26.586 106.891,25.555 Q106.891,24.477 108.312,24.195 L108.312,19.617 Q107.094,18.383 106.891,16.852 Q106.891,15.648 108.547,15.352 Q109.438,14.898 109.734,14.898 z" fill="#000000" fill-opacity="0.403"/>
    <path d="M143.109,15.898 Q145.953,15.898 150.984,17.773 Q151.5,18.273 151.5,19.133 Q151.5,20.852 149.922,21.227 Q146.062,20.258 143.172,20.258 L143.109,20.258 Q137.328,20.258 133.359,25.055 Q132.078,27.039 132.078,29.398 Q132.078,34.883 138.375,34.883 L138.828,34.883 Q144.844,34.883 150.453,31.055 Q151.203,30.305 151.953,30.305 Q153.672,30.539 153.672,31.883 L153.672,32.102 Q153.672,33.914 151.359,35.023 Q148.797,36.883 144.672,38.102 Q141.266,38.852 139.5,38.852 Q131.656,38.852 129.828,32.852 Q129.078,29.992 129.078,28.57 Q129.078,23.586 134.922,18.898 Q139.969,15.898 143.109,15.898 z" fill="#000000" fill-opacity="0.403"/>
    <path d="M158.953,14.898 Q159.25,14.898 160.312,15.352 L167.359,15.352 L174.188,15.43 Q175.188,15.43 175.906,17.68 L175.984,18.195 Q175.594,19.555 173.953,19.555 L160.234,19.773 L160.312,21.805 L160.312,24.195 L171.938,24.195 Q173.703,24.195 174.188,25.695 L174.328,26.602 Q174.328,28.242 172.391,28.242 L160.391,28.242 L160.391,34.398 L160.453,34.398 L174.328,34.477 Q175.281,34.477 175.984,36.867 Q175.984,38.023 174.266,38.367 L160.688,38.602 Q160.203,40.023 159.109,40.023 Q157.891,40.023 157.453,37.992 Q156.188,36.07 156.188,35.742 Q156.188,34.742 157.688,34.32 L157.609,33.805 L157.609,27.945 Q156.109,26.586 156.109,25.555 Q156.109,24.477 157.531,24.195 L157.531,19.617 Q156.312,18.383 156.109,16.852 Q156.109,15.648 157.766,15.352 Q158.656,14.898 158.953,14.898 z" fill="#000000" fill-opacity="0.403"/>
    <path d="M180.328,13.977 L180.547,13.977 Q181.828,14.148 181.828,15.242 L181.828,15.617 L181.75,16.523 L181.828,17.43 L182.125,34.445 L192.25,34.445 Q195.766,34.445 195.766,35.055 Q196.141,35.102 196.219,37.305 Q196,38.492 194.641,38.492 L185.719,38.492 L182.203,38.43 Q181.609,39.398 180.844,39.398 Q179.938,39.398 179.344,38.195 Q178.297,37.508 178.297,36.023 Q178.297,35.039 179.422,34.367 L179.344,34.07 L179.125,16.742 L178.891,15.242 Q178.891,14.258 180.328,13.977 z" fill="#000000" fill-opacity="0.403"/>
    <path d="M199.078,13.977 L199.297,13.977 Q200.578,14.148 200.578,15.242 L200.578,15.617 L200.5,16.523 L200.578,17.43 L200.875,34.445 L211,34.445 Q214.516,34.445 214.516,35.055 Q214.891,35.102 214.969,37.305 Q214.75,38.492 213.391,38.492 L204.469,38.492 L200.953,38.43 Q200.359,39.398 199.594,39.398 Q198.688,39.398 198.094,38.195 Q197.047,37.508 197.047,36.023 Q197.047,35.039 198.172,34.367 L198.094,34.07 L197.875,16.742 L197.641,15.242 Q197.641,14.258 199.078,13.977 z" fill="#000000" fill-opacity="0.403"/>
  </g>
</svg>
